assets/icons/sort/ascending.svg

<?xml version="1.0" encoding="UTF-8" standalone="no"?>
<svg
   viewBox="0 0 24 24"
   height="24"
   width="24"
   version="1.1"
   id="svg4"
   sodipodi:docname="ascending.svg"
   inkscape:version="1.2 (1:1.2.1+202207142221+cd75a1ee6d)"
   xmlns:inkscape="http://www.inkscape.org/namespaces/inkscape"
   xmlns:sodipodi="http://sodipodi.sourceforge.net/DTD/sodipodi-0.dtd"
   xmlns="http://www.w3.org/2000/svg"
   xmlns:svg="http://www.w3.org/2000/svg">
  <defs
     id="defs8" />
  <sodipodi:namedview
     id="namedview6"
     pagecolor="#ffffff"
     bordercolor="#666666"
     borderopacity="1.0"
     inkscape:pageshadow="2"
     inkscape:pageopacity="0.0"
     inkscape:pagecheckerboard="0"
     showgrid="true"
     inkscape:snap-page="true"
     inkscape:zoom="32"
     inkscape:cx="11.71875"
     inkscape:cy="11.53125"
     inkscape:window-width="1920"
     inkscape:window-height="1043"
     inkscape:window-x="0"
     inkscape:window-y="0"
     inkscape:window-maximized="1"
     inkscape:current-layer="svg4"
     inkscape:showpageshadow="2"
     inkscape:deskcolor="#d1d1d1">
    <inkscape:grid
       type="xygrid"
       id="grid821" />
    <inkscape:grid
       type="xygrid"
       id="grid995"
       dotted="true"
       spacingx="0.5"
       spacingy="0.5"
       empspacing="10" />
  </sodipodi:namedview>
  <path
     id="path2139"
     style="font-variant-ligatures:none;font-variant-position:normal;font-variant-caps:normal;font-variant-numeric:normal;font-variant-alternates:normal;font-feature-settings:normal;text-indent:0;text-decoration-line:none;text-decoration-style:solid;text-decoration-color:#000000;text-transform:none;shape-padding:0;isolation:auto;mix-blend-mode:normal;stroke-width:1;fill:#808080"
     d="M 16.5 2.5 C 15.916281 3.4249227 15.35973 4.3662283 14.832031 5.3242188 C 14.33719 6.2310444 13.890219 7.1228392 13.482422 8 L 16 8 L 16 18 L 17 18 L 17 8 L 19.515625 8 C 19.085309 7.0960685 18.63045 6.2027811 18.150391 5.3242188 C 17.625051 4.3683656 17.074471 3.4271561 16.5 2.5 z " />
  <path
     id="rect2331"
     style="fill:#808080;fill-rule:evenodd;stroke-width:2;stroke-linecap:square;stroke-linejoin:round"
     d="m 6,4 v 4 h 4 v -4 z m 1,1 h 2 v 2 h -2 z" />
  <path
     id="path2388"
     style="fill:#808080;fill-rule:evenodd;stroke-width:2;stroke-linecap:square;stroke-linejoin:round"
     d="m 6,10 v 4 h 4 v -4 z m 1,1 h 2 v 2 h -2 z" />
  <path
     id="path2390"
     style="fill:#808080;fill-rule:evenodd;stroke-width:2;stroke-linecap:square;stroke-linejoin:round"
     d="m 6,16 v 4 h 4 v -4 z m 1,1 h 2 v 2 h -2 z" />
</svg>

<svg height="24" width="24" xmlns="http://www.w3.org/2000/svg"><path style="font-variant-ligatures:none;font-variant-position:normal;font-variant-caps:normal;font-variant-numeric:normal;font-variant-alternates:normal;font-feature-settings:normal;text-indent:0;text-decoration-line:none;text-decoration-style:solid;text-decoration-color:#000;text-transform:none;shape-padding:0;isolation:auto;mix-blend-mode:normal;stroke-width:1;fill:gray" d="M16.5 2.5a55.14 55.14 0 0 0-1.668 2.824A46.516 46.516 0 0 0 13.482 8H16v10h1V8h2.516a53.878 53.878 0 0 0-1.366-2.676A62.696 62.696 0 0 0 16.5 2.5z"/><path style="fill:gray;stroke-width:2;stroke-linecap:square;stroke-linejoin:round" d="M6 4v4h4V4zm1 1h2v2H7zm-1 5v4h4v-4zm1 1h2v2H7zm-1 5v4h4v-4zm1 1h2v2H7z"/></svg>
